X: 26
T:The Ashplant
S:Altan - The Blue Idol Track 6
M:4/4
F:http://blackrosetheband.googlepages.com/ABCTUNES.ABC May 2009
R:reel
K:F#m
AB | cF(3FFF cBAB| cFFF EFAB | c2cB cefg | afec BcAB |
cF(3FFF cBAB | cFFA EFAB | (3cdcBd cefg | afec BcdB |
(3cdc ac bcac | (3ccc ac cBAB |(3cdc ac bcac | afec BcdB |
(3cdc ac bcac | (3ccc ac cBAB | cefg a3a | afec BcdB |

